X: 20771
T: Johnny Leary's
R: polka
M: 2/4
K: Dmajor
dB|:AF FE|DF F/F/F|AF AF|E2 EF|
GE ED|CE E2|AG/A/ Bc|1 d2 c>B:|2 d2 dA||
|:dc/d/ fe|cB/c/ ec|BA Bc|BA FA|
dc/d/ fe|cB/c/ ec|BA Bc|1 d2 dA:|2 d2 c>B||

